X: 21641
T: Killeigh, The
R: hornpipe
M: 4/4
K: Gmajor
|:(3cBA|G>AA>F G2 B>d|(3gag f>g d>GB>d|e>GB>d B>A G2|(3ABA G>E (3DED (3DEF|
G>A (3AGF G2 B>d|g2 f>g d>GB>d|e>G (3Bcd B>A G2|(3GGG G>F G2:|
|:B>c|d2 B>d e2 B>d|(3gag b>g e>GB>d|c>ec>A B3 G|A>FG>E D2 (3ABc|
d>G (3Bcd e>G (3Bcd|g2 b>g e>GB>G|D>G (3Bcd B>AG>D|G2 A>F G2-:|

